X:1
T: Miss Johnston of Lathrisk's Strathspey
C:
R:Strathspey
Q: 128
K:G
M:4/4
L:1/16
|:G,G3 G2FG A,A3 A4|G,G3 G2FG E3A FD3|G,G3 G2FG A,A3 A3c|Bd3 c2A2 G4 G4|
G,G3 G2FG A,A3 A4|G,G3 G2FG E3A FD3|G,G3 G2FG A,A3 A3c|BcdB ABcA G2G2 G4|
B3g dB3 cA3 FD3|Gg3 dB3 Gb3 gd3|eg3 ce3 FA3 Dc3|Bd3 c3A BG3 G3c|
B3g dB3 cA3 FD3|Gg3 dB3 Gb3 gd3|efg2 cde2 FA3 Dc3|Bd3 D3F G4 G,4:|
